healthcode/ykm/static/f00f1d0fbb5c9f1863cf882cbd6f1933.svg

<svg viewBox="0 0 36 36" xmlns="http://www.w3.org/2000/svg" xmlns:xlink="http://www.w3.org/1999/xlink"><defs><linearGradient id="a" x1="50%" x2="50%" y1="0%" y2="97.623083%"><stop offset="0" stop-color="#3888ff"/><stop offset=".502108181" stop-color="#3a8aff" stop-opacity=".964503"/><stop offset="1" stop-color="#eef7ff"/></linearGradient><path id="b" d="m620.001 0c16.568542 0 30 14.1153064 30 31.5274193l.000002 112.4725807c-.000334 0-.000668 0-.001002 0-8.284271 0-15 6.715729-15 15s6.715729 15 15 15l.001 630h-650.001v-630c8.28427125 0 15-6.715729 15-15s-6.71572875-15-15-15v-112.4725807c0-17.4121129 13.4324575-31.5274193 30.001-31.5274193z"/><mask id="c" fill="#fff"><use fill="#fff" fill-rule="evenodd" xlink:href="#b"/></mask></defs><g fill="none" fill-rule="evenodd"><path d="m0 0h750v1624h-750z" fill="#fff" transform="translate(-642 -663)"/><path d="m0 372h750v800h-750z" fill="url(#a)" transform="translate(-642 -663)"/><g transform="translate(-592 -291)"><path d="m620.001 0c16.568542 0 30 14.1153064 30 31.5274193l.000002 112.4725807c-.000334 0-.000668 0-.001002 0-8.284271 0-15 6.715729-15 15s6.715729 15 15 15l.001 630h-650.001v-630c8.28427125 0 15-6.715729 15-15s-6.71572875-15-15-15v-112.4725807c0-17.4121129 13.4324575-31.5274193 30.001-31.5274193z" fill="#fff"/><use fill="#fff" xlink:href="#b"/><g fill="#3888ff" mask="url(#c)"><path d="m8 0h72v188h-72c-4.418278 0-8-3.581722-8-8v-172c0-4.418278 3.581722-8 8-8z" opacity=".1" transform="translate(570 267)"/><path d="m40 51-10.5801345 5.5623059 2.0206259-11.781153-8.5595087-8.3434588 11.82895-1.718847 5.2900673-10.7188471 5.2900673 10.7188471 11.82895 1.718847-8.5595087 8.3434588 2.0206259 11.781153z" transform="translate(570 267)"/></g></g></g></svg>

<svg xmlns="http://www.w3.org/2000/svg" xmlns:xlink="http://www.w3.org/1999/xlink" viewBox="0 0 36 36" class="design-iconfont">
  <defs>
    <linearGradient x1="50%" y1="0%" x2="50%" y2="97.6230828%" id="h6960q2yua">
      <stop stop-color="#3888FF" offset="0%"/>
      <stop stop-color="#3A8AFF" stop-opacity=".96450277" offset="50.2108181%"/>
      <stop stop-color="#EEF7FF" offset="100%"/>
    </linearGradient>
    <path d="M620.001,0 C636.569542,0 650.001,14.1153064 650.001,31.5274193 L650.001002,144 C650.000668,144 650.000334,144 650,144 C641.715729,144 635,150.715729 635,159 C635,167.284271 641.715729,174 650,174 L650,174 L650.001,804 L0,804 L0,174 L0,174 C8.28427125,174 15,167.284271 15,159 C15,150.715729 8.28427125,144 0,144 L0,31.5274193 C0,14.1153064 13.4324575,0 30.001,0 L620.001,0 Z" id="8hxpd7wz9b"/>
  </defs>
  <g fill="none" fill-rule="evenodd">
    <path fill="#FFF" d="M0 0H750V1624H0z" transform="translate(-642 -663)"/>
    <path fill="url(#h6960q2yua)" d="M0 372H750V1172H0z" transform="translate(-642 -663)"/>
    <g transform="translate(-592 -291)">
      <path d="M620.001,0 C636.569542,0 650.001,14.1153064 650.001,31.5274193 L650.001002,144 C650.000668,144 650.000334,144 650,144 C641.715729,144 635,150.715729 635,159 C635,167.284271 641.715729,174 650,174 L650,174 L650.001,804 L0,804 L0,174 L0,174 C8.28427125,174 15,167.284271 15,159 C15,150.715729 8.28427125,144 0,144 L0,31.5274193 C0,14.1153064 13.4324575,0 30.001,0 L620.001,0 Z" fill="#FFF"/>
      <mask id="f3psefiysc" fill="#fff">
        <use xlink:href="#8hxpd7wz9b"/>
      </mask>
      <use fill="#FFF" xlink:href="#8hxpd7wz9b"/>
      <g mask="url(#f3psefiysc)" fill="#3888FF">
        <path d="M8,0 L80,0 L80,0 L80,188 L8,188 C3.581722,188 5.41083001e-16,184.418278 0,180 L0,8 C-5.41083001e-16,3.581722 3.581722,8.11624501e-16 8,0 Z" opacity=".1" transform="translate(570 267)"/>
        <path d="M40 51L29.4198655 56.5623059 31.4404914 44.7811529 22.8809827 36.4376941 34.7099327 34.7188471 40 24 45.2900673 34.7188471 57.1190173 36.4376941 48.5595086 44.7811529 50.5801345 56.5623059z" transform="translate(570 267)"/>
      </g>
    </g>
  </g>
</svg>
